X:1
T:French Suite III Allemande
T:BWV 814
T:J. S. Bach
%%score { ( 1 3 ) | ( 2 4 ) }
L:1/8
M:4/4
K:D
V:1 treble nm="Harp"
V:3 treble 
V:2 bass 
V:4 bass 
V:1
 F/B/^A/ | B/4^A/4Bc/ d/B/e/B/ fB- B/B/e/d/ | g/e/^a/b/ c/g/f/e/ d/f/B/^A/ B/d/G/F/ | %3
 Gb- b/g/e/d/ c/e/A/G/ A/c/F/E/ | Fa- a/f/d/c/ B/d/G/F/ G/B/e/d/ | e>E F/A/d/c/ d>B e/g/b/c/ | %6
 d/F/B/^A/ B2- B/A/e/d/ e2- | e/d/^g/f/ g2- g/c/f/^e/ f/a/g/f/ | ^ec f>=e d/F/B/A/ B2- | %9
 B/A/^G/B/ ^E/d/c/B/ A/E/F/B/ F/4G/4A/4G/4A/4G/4F/ | F4- F/B/e/d/ e/_B/d/c/ | %11
 d/^G/c/B/ c2- c/F/d/c/ ^E>F | F4- F2 z/ F/B/^A/ | B/4^A/4Bc/ d/B/e/B/ fB- B/B/e/d/ | %14
 g/e/^a/b/ c/g/f/e/ d/f/B/^A/ B/d/G/F/ | Gb- b/g/e/d/ c/e/A/G/ A/c/F/E/ | %16
 Fa- a/f/d/c/ B/d/G/F/ G/B/e/d/ | e>E F/A/d/c/ d>B e/g/b/c/ | d/F/B/^A/ B2- B/A/e/d/ e2- | %19
 e/d/^g/f/ g2- g/c/f/^e/ f/a/g/f/ | ^ec f>=e d/F/B/A/ B2- | %21
 B/A/^G/B/ ^E/d/c/B/ A/E/F/B/ F/4G/4A/4G/4A/4G/4F/ | F4- F/B/e/d/ e/_B/d/c/ | %23
 d/^G/c/B/ c2- c/F/d/c/ ^E>F | F4- F2 z/ c/^G/B/ | ^A>c F/f/c/e/ d>f B/b/f/a/ | %26
 g/e/B/d/ =c/g/f/a/ ^dB z/ e/B/=d/ | =c/e/A/c/ B/e/G/B/ A/e/F/A/ G/e/E/G/ | %28
 F/e/^d/a/ g/4f/4g/4f/4g/4f/4e/ e2- e/g/B/=d/ | c>e A/a/e/g/ f2- f/d/^A/c/ | %30
 B>d G/g/d/f/ e2- e/c/^G/B/ | ^A>c F/f/c/e/ d2- d/B/F/=A/ | G/B/E/d/ c/e/g/B/ ^A/c/F- F/B/F/=A/ | %33
 G/B/E/G/ F/B/D/F/ E/B/C/E/ D/B/B,/D/ | C/B/^A/e/ d/4c/4B/4c/4d/4c/4B/ B/G/f/^d/ e2- | %35
 e/B/^g/^e/ f>=e d/c/d/B/ ^A>B | B4- B2 z/ c/^G/B/ | ^A>c F/f/c/e/ d>f B/b/f/a/ | %38
 g/e/B/d/ =c/g/f/a/ ^dB z/ e/B/=d/ | =c/e/A/c/ B/e/G/B/ A/e/F/A/ G/e/E/G/ | %40
 F/e/^d/a/ g/4f/4g/4f/4g/4f/4e/ e2- e/g/B/=d/ | c>e A/a/e/g/ f2- f/d/^A/c/ | %42
 B>d G/g/d/f/ e2- e/c/^G/B/ | ^A>c F/f/c/e/ d2- d/B/F/=A/ | G/B/E/d/ c/e/g/B/ ^A/c/F- F/B/F/=A/ | %45
 G/B/E/G/ F/B/D/F/ E/B/C/E/ D/B/B,/D/ | C/B/^A/e/ d/4c/4B/4c/4d/4c/4B/ B/G/f/^d/ e2- | %47
 e/B/^g/^e/ f>=e d/c/d/B/ ^A>B | !fermata!B4- B2 z/ z3/2 |] %49
V:2
 z/ z | z/ F,/B,/^A,/ B,C D/B,/G/F/ G/4F/4GF/ | EC FF, B,C DB, | E,/B,/E/D/ CB, A,G, F,E, | %4
 D,/A,/D/C/ B,A, G,F, E,D, | C,/E,/A,/G,/ A,>F, B,,/F,/B,/A,/ G,A, | %6
 D,2- D,/B,,/G,/F,/ G,C,- C,/F,/B,/^A,/ | B,B,,- B,,/^E,/A,/^G,/ A,2- A,/F,/B,/A,/ | %8
 B,/D/C/B,/ A,/F,/B,/^A,/ B,=A, ^G,/^E,/D/C/ | DB, ^G,^E, F,B,, C,C,, | %10
 z/ F,/E/D/ E/F,/D/C/ D/F,/C/B,/ C/F,/B,/^A,/ | B,2- B,/^E,/A,/^G,/ A,F, CC, | %12
 z ^A,- A,/B,/A,/G,/ A,2 z/ z/ z | z/ F,/B,/^A,/ B,C D/B,/G/F/ G/4F/4GF/ | EC FF, B,C DB, | %15
 E,/B,/E/D/ CB, A,G, F,E, | D,/A,/D/C/ B,A, G,F, E,D, | C,/E,/A,/G,/ A,>F, B,,/F,/B,/A,/ G,A, | %18
 D,2- D,/B,,/G,/F,/ G,C,- C,/F,/B,/^A,/ | B,B,,- B,,/^E,/A,/^G,/ A,2- A,/F,/B,/A,/ | %20
 B,/D/C/B,/ A,/F,/B,/^A,/ B,=A, ^G,/^E,/D/C/ | DB, ^G,^E, F,B,, C,C,, | %22
 z/ F,/E/D/ E/F,/D/C/ D/F,/C/B,/ C/F,/B,/^A,/ | B,2- B,/^E,/A,/^G,/ A,F, CC, | %24
 z ^A,- A,/B,/A,/G,/ A,2 z/ z/ z | z/ F/C/E/ D^A, z/ B,/F,/=A,/ G,^D, | %26
 E,G, A,=C z/ B,/F,/A,/ G,E, | A,F, G,E, =CA, B,G, | A,F, B,,/B,/F,/A,/ G,/B,/^D,/F,/ E,G, | %29
 A,/A/E/G/ FC z/ D/^A,/C/ B,F, | G,/G/D/F/ EB, z/ C/^G,/B,/ B,F, | %31
 F,/F/C/E/ D^A, z/ B,/F,/=A,/ G,^D, | E,G, E,C, z/ F,/C,/E,/ D,B,, | E,C, D,B,, G,E, F,D, | %34
 E,C, F,F,, G,,2- G,,/E,,/C,/^A,,/ | B,,2- B,,/^A,,/E,/C,/ G,E, F,F,, | %36
 z/ A,/G,/F,/ G,F,/E,/ F,2 z/ z/ z | z/ F/C/E/ D^A, z/ B,/F,/=A,/ G,^D, | %38
 E,G, A,=C z/ B,/F,/A,/ G,E, | A,F, G,E, =CA, B,G, | A,F, B,,/B,/F,/A,/ G,/B,/^D,/F,/ E,G, | %41
 A,/A/E/G/ FC z/ D/^A,/C/ B,F, | G,/G/D/F/ EB, z/ C/^G,/B,/ B,F, | %43
 F,/F/C/E/ D^A, z/ B,/F,/=A,/ G,^D, | E,G, E,C, z/ F,/C,/E,/ D,B,, | E,C, D,B,, G,E, F,D, | %46
 E,C, F,F,, G,,2- G,,/E,,/C,/^A,,/ | B,,2- B,,/^A,,/E,/C,/ G,E, F,F,, | %48
 z/ A,/G,/F,/ G,F,/E,/ !fermata!F,2 z/ z3/2 |] %49
V:3
 x3/2 | x8 | x8 | x8 | x8 | x8 | x8 | x8 | x8 | x8 | x8 | x8 | z/ E/D/C/ DC/B,/ C2 z/ z/ z | x8 | %14
 x8 | x8 | x8 | x8 | x8 | x8 | x8 | x8 | x8 | x8 | z/ E/D/C/ DC/B,/ C2 z/ x3/2 | x8 | x8 | x8 | %28
 x8 | x8 | x8 | x8 | x8 | x8 | x8 | x8 | z ^D- D/E/D/C/ D2 z/ z/ z | x8 | x8 | x8 | x8 | x8 | x8 | %43
 x8 | x8 | x8 | x8 | x8 | z ^D- D/E/D/C/ !fermata!D2 x2 |] %49
V:4
 x3/2 | x8 | x8 | x8 | x8 | x8 | x8 | x8 | x8 | x8 | x8 | x8 | F,4- F,2 z/ z/ z | x8 | x8 | x8 | %16
 x8 | x8 | x8 | x8 | x8 | x8 | x8 | x8 | F,4- F,2 z/ x3/2 | x8 | x8 | x8 | x8 | x8 | x8 | x8 | x8 | %33
 x8 | x8 | x8 | B,,4- B,,2 z/ z/ z | x8 | x8 | x8 | x8 | x8 | x8 | x8 | x8 | x8 | x8 | x8 | %48
 !fermata!B,,4- B,,2 x2 |] %49

